X:83
T: Graf und Nonne (Die Nonne)
N: Q0155T
O: Mitteleuropa, Deutschland (DDR) , Sachsen, Eisleben
N: Anhaengsel an der dritten Zeile.
R: Ballade, Standesunterschied, vergebliche Werbung, Liebe, Klage
M: 2/4
L: 1/16
K: G
GB | d3ed2c2 | B4A2
A2 | B2B2^c2ce | d4z2
d2 | g2g2f2f2 | e4d2z2 | c4B2
d2 | e2c2d2F2 | G4z2

